X:1
T:Kost ar c'hoat : Pelant, Leskoed (TBI 1409)
Z:Roger Ngaret (Novembre 99)
C:Trad.
S:Tonio Breizh-Izel (Polig Monjarret)
A:Bretagne
M:4/4
Q:70
K:Bb
B,2 CB, C/B,/C/D/ E2 |1 FE/D/ CC D/C/D/E/ FF :|2 FE/D/ CD B,2 B,2 |:
B2 AG FG/F/ DF |1 B2 AG F4 :|2 B2 AG F3 F |: DF DF DF G2 |
E2 CE CE FF | D2 B,D B,D ED |1 CE D/C/D B,4 :|2 EF GA B4 |]
